X: 650
T: Young William Plunkett
C:O'Carolan
B:O'Neill's 650
Z: 1997 by John Chambers <jc@trillian.mit.edu>
N:"Lively"
M:C
L:1/8
K:G
D \
| ">"G2GG [g2B2]gf | (ef)(ed) B2(Bd) | (ef)(ge) ({f}ed)(cB) | (AB)(AG) E2Ez |
| (GA)(BG) g2gf | (ef)(ed) B2cB | (A/B/c) BA B2AB | GEDE G2Gz |
| ">"G2(AB) ">"G2(AB) | {^c}d2de (dB)(AG) | G2GG [g2B2]gf | (ef)(ed) B2z2 |
| {c}BABd {f}edef | ">"(gf)(gd) ">"BABd | ">"efge dBAB | GEDE G2z |]


